resources/svg/typhoon-fill.svg

<svg fill="currentColor" viewBox="0 0 24 24" xmlns="http://www.w3.org/2000/svg"><path d="M17.6544 1.7002L14.8716 4.23333C16.147 4.62349 17.3453 5.2812 18.3612 6.20645C21.8744 9.40625 21.8744 14.5941 18.3612 17.7939C15.7696 20.1544 11.7644 21.6564 6.3456 22.3002L9.12838 19.7671C7.85304 19.3769 6.65466 18.7192 5.6388 17.7939C2.1256 14.5941 2.1048 9.4252 5.6388 6.20645C8.2304 3.84603 12.2356 2.34395 17.6544 1.7002ZM12 8.0002C9.51472 8.0002 7.5 9.79106 7.5 12.0002C7.5 14.2093 9.51472 16.0002 12 16.0002C14.4853 16.0002 16.5 14.2093 16.5 12.0002C16.5 9.79106 14.4853 8.0002 12 8.0002Z"/></svg>

<svg xmlns="http://www.w3.org/2000/svg" viewBox="0 0 24 24" fill="currentColor">
    <g>
        <path fill="none" d="M0 0h24v24H0z"/>
        <path d="M17.654 1.7l-2.782 2.533a9.137 9.137 0 0 1 3.49 1.973c3.512 3.2 3.512 8.388 0 11.588-2.592 2.36-6.598 3.862-12.016 4.506l2.782-2.533a9.137 9.137 0 0 1-3.49-1.973c-3.512-3.2-3.533-8.369 0-11.588C8.23 3.846 12.237 2.344 17.655 1.7zM12 8c-2.485 0-4.5 1.79-4.5 4s2.015 4 4.5 4 4.5-1.79 4.5-4-2.015-4-4.5-4z"/>
    </g>
</svg>
